X:1
T:Be a Blessing (Oatman)
T:Be a Blessing (Oatman)
T:Anthony Johnson Showalter
T:Johnson Oatman, Jr., 1902
T:Public Domain Courtesy of the Cyber Hymnal™
T:Public Domain Courtesy of the Cyber Hymnal™
C:Anthony Johnson Showalter
Z:Public Domain
Z:Courtesy of the Cyber Hymnal™
%%score ( 1 2 ) ( 3 4 )
L:1/8
Q:1/4=96
M:4/4
K:Bb
V:1 treble 
V:2 treble 
V:3 bass 
V:4 bass 
V:1
 [DF][DF][B,D][CE] [DF][DF] [DB]>[Dc] | [EB]2 [EA]2 [EA]4 | [EA][EA][CE][CE] [FA][FA] [EG]>[EA] | %3
w: 1.~Would you be a sun- beam filled with|Hea- ven’s light,|Shed- ding forth its beau- ty o- ver|
w: 2.~Where the tears are fall- ing and the|hearts are sad,|Take some Gos- pel mes- sage that will|
w: 3.~Just a cup of wa- ter for the|Mas- ter’s sake|May sweet chords of mu- sic in some|
w: 4.~If you fol- low Je- sus all a-|long life’s way,|You will help to bright- en ev- ery|
 [DG]2 [B,D]2 [DF]4 | [DF][DF][B,D][CE] [DF][DF] [DB]>[DB] | [Ec]2 [EB]2 [EG]4 | %6
w: scenes of night?|In this world of sor- row, sick- ness,|sin and woe,|
w: make them glad;|Strive to give them com- fort by some|lov- ing deed,|
w: bo- som wake;|Seek to help some pil- grim t’ward the|gold- en land,|
w: hour and day:|Would you shine in glo- ry bright- er|than the sun?|
 [GB][GB][FA][EG] [DF][DF] [DB]>[Ec] | [Fd]2 [Ec]2 [DB]4 ||"^Refrain" [Fc]3 [Fd] [Fc]F [EF]>[EF] | %9
w: Try to be a bless- ing ev- ery-|where you go.||
w: Try to be a bless- ing in the|time of need.|Be a bless- ing on life’s|
w: Try to be a bless- ing, both with|voice and hand.||
w: Try to be a bless- ing till your|work is done.||
 [DB]2 [Ec]2 [Fd]4 | [Fd]3 [Fd] [Ge][Fd] [Ec]>[DB] | [Fc]2 [=Ec]2 [Fc]4 | [Fd]3 [Fd] [Ge] [Fd]3 | %13
w: ||||
w: wea- ry mile,|Be a bless- ing with a|word or smile;|Be a bless- ing,|
w: ||||
w: ||||
 [Ff][Ff] [_Af]>[Af] [Ge]4 | [FB][FB][FB][Gc] [Fd]<[Fd] [DB]>[Ec] | [Fd]2 [Ec]2 [DB]4 |] %16
w: |||
w: ev- ery- where the same;|Try to be a bless- ing in the|Mas- ter’s name.|
w: |||
w: |||
V:2
 x8 | x8 | x8 | x8 | x8 | x8 | x8 | x8 || x5 F x2 | x8 | x8 | x8 | x8 | x8 | x8 | x8 |] %16
V:3
 [B,,B,][B,,B,][B,,F,][B,,F,] [B,,B,] [B,,B,]3 | [C,F,][C,F,] [C,F,]>[C,F,] [C,F,]4 | %2
w: ~ ~ ~ ~ ~ ~|~ ~ ~ ~ ~|
 F,F,[F,A,][F,A,] [F,C] [F,C]3 | [B,,B,][B,,B,] [B,,F,]>[B,,F,] [B,,B,]4 | %4
w: ~ ~ ~ ~ ~ ~|~ ~ ~ ~ ~|
 [B,,B,][B,,B,][B,,F,][B,,F,] [B,,B,] [B,,B,]3 | [E,G,][E,G,] [E,G,]>[E,G,] [E,B,]4 | %6
w: ~ ~ ~ ~ ~ ~|~ ~ ~ ~ ~|
 [E,B,][E,B,][E,B,][E,B,] [F,B,] [F,B,]3 | [F,B,][F,B,] [F,A,]>[F,A,] [B,,B,]4 || %8
w: ~ ~ ~ ~ ~ ~|~ ~ ~ ~ ~|
 [F,A,][F,A,][F,A,][F,A,] [F,A,] [F,A,]3 | [B,,B,][B,,B,] [B,,F,]>[B,,F,] [B,,B,]4 | %10
w: Be a cheer- ful bless- ing|on life’s wea- ry mile,|
 B,B,B,B, B, B,3 | [F,A,][F,A,] [C,G,]>[C,G,] [F,A,]4 | %12
w: Be a sun- ny bless- ing|with a word or smile;|
 [B,,B,][B,,B,][B,,B,][B,,B,] [B,,B,] [B,,B,]3 | [D,B,][D,B,] [D,B,]>[D,B,] [E,B,]4 | %14
w: Be a con- stant bless- ing,||
 [D,B,][D,B,][D,B,][E,B,] [F,B,]<[F,B,] [G,B,]>[G,B,] | [F,B,]2 [F,A,]2 [B,,B,]4 |] %16
w: ||
V:4
 x8 | x8 | F,F, x6 | x8 | x8 | x8 | x8 | x8 || x8 | x8 | B,B,B,B, B, B,3 | x8 | x8 | x8 | x8 | %15
 x8 |] %16

